packages/katcn/src/icons/svg/devices-solid.svg

<svg width="24" height="25" viewBox="0 0 24 25" fill="none" xmlns="http://www.w3.org/2000/svg">
<path d="M20.3 4.31201H3.8C2.2 4.31201 1 5.51201 1 7.11201V15.312C1 16.812 2.2 18.012 3.8 18.012H6C6 18.012 6.0301 18.012 6.1 17.912L6.8 17.012L7.6 16.012L9.8 13.012C10.3 12.312 11.1 11.912 12 11.912C12.9 11.912 13.7 12.312 14.3 13.012L16.5 16.012L17.3 17.012L18 17.912L18.1 18.012H20.4C21.9 18.012 23.2 16.812 23.2 15.312V7.11201C23 5.51201 21.8 4.31201 20.3 4.31201Z" fill="black"/>
<path d="M15.5 18.012L14.7 17.012L13.9 16.012L12.6 14.212C12.5 14.012 12.2 13.912 11.9 13.912C11.6 13.912 11.4 14.012 11.2 14.212L10 16.012L9.20001 17.012L8.40001 18.012L7.60001 19.112C7.40001 19.312 7.40001 19.612 7.50001 19.912C7.70001 20.112 8.00001 20.312 8.30001 20.312H15.6C15.9 20.312 16.2 20.112 16.3 19.912C16.4 19.612 16.4 19.412 16.2 19.112L15.5 18.012Z" fill="black"/>
</svg>

<svg xmlns="http://www.w3.org/2000/svg" fill="none" viewBox="0 0 24 25"><path fill="#000" d="M20.3 4.312H3.8c-1.6 0-2.8 1.2-2.8 2.8v8.2c0 1.5 1.2 2.7 2.8 2.7H6s.03 0 .1-.1l.7-.9.8-1 2.2-3c.5-.7 1.3-1.1 2.2-1.1s1.7.4 2.3 1.1l2.2 3 .8 1 .7.9.1.1h2.3c1.5 0 2.8-1.2 2.8-2.7v-8.2c-.2-1.6-1.4-2.8-2.9-2.8"/><path fill="#000" d="m15.5 18.012-.8-1-.8-1-1.3-1.8c-.1-.2-.4-.3-.7-.3s-.5.1-.7.3l-1.2 1.8-.8 1-.8 1-.8 1.1c-.2.2-.2.5-.1.8.2.2.5.4.8.4h7.3c.3 0 .6-.2.7-.4.1-.3.1-.5-.1-.8z"/></svg>
